X:1
T:Title
%%score { ( 1 3 ) | ( 2 4 ) }
L:1/8
Q:1/4=100
M:4/4
K:C
V:1 treble nm="Grand Piano"
V:3 treble 
V:2 bass 
V:4 bass 
V:1
 [Ec]>B [Ec]>d [Ec]>B [Ec]>A | z4 [FB]4[K:bass] | [FB]>_B [F=B]>d [FA]>^G [FA]2 | G8 | %4
w: Adam~Geibel * * * * * * *||||
 [Ec]>B [Ec]>d [Ec]>B [Ec]2 | z4 [DGB]4 | [^Fd]>^c d>e [Fd]>A B>=c | d4 G4[K:bass] | %8
w: ||||
 [Ee]2 [Ed]2 [Ec]>[EB] [Ed]>[Ec] | D4 A4 | f2 e2 d>^c e>d | z2 G6 | [Ee]2 [Ed]2 c>B d>c | f4 c4 | %14
w: ||||||
 c2 z2 e>d B>G | c8 |] %16
w: ||
V:2
 .[C,G,]2 .[G,,G,]2 .[C,G,]2 .[G,,G,]2 | .[D,G,]2 .[G,,G,]2 .[D,G,]2 z2 | %2
 .[D,G,]2 .[G,,G,]2 .[B,,G,]2 .[G,,G,]>[K:treble]B | .C,2 .G,,2 .D,2 .G,,2 | %4
 .[C,G,]2 .[G,,G,]2 .[C,G,]2 .[G,,G,]>A | .D,2 .G,2 .G,2 .G,2 | .D,,2 .[D,^F,C]2 .D,,2 .[D,F,C]2 | %7
 F8 | [C,G,]2 [C,G,]2 [C,G,]>[C,G,] [C,G,]>[C,G,] | [F,A,C]2 [F,A,]2 [F,A,CD]2 [F,A,C]2 | %10
 [G,B,G]2 [G,B,F]2 [G,B,F]>[G,B,F] [G,B,F]>[G,B,F] | z4 =B,4 | %12
 [C,G,]2 [C,G,]2[K:treble] [_B,CE]>[B,CE] [B,CE]>[B,CE] | [A,CF]2 [A,C]2 [^G,C^F]2 [G,D]2 | %14
 [G,EG]2 z2 [G,B,F]>[G,B,F] [G,DF]>[G,B,F] | [C,C]>[C,G,] [F,A,]>[F,A,] [C,G,]4 |] %16
V:3
 x8 | [FB]2 [FB]2 z2[K:bass] .[G,,G,]2 | x8 | .[G,CE]2 .[G,CE]2 .[G,B,F]2 .[G,B,F]2 | x8 | %5
 [DGB]2 .[B,DGB]2 .B,2 .B,2 | x8 | z2 .G,2 z2[K:bass] .[G,,G,]2 | x8 | z2 C2 z2 D2 | x8 | %11
 [EA]2 E2 F2 D2 | x8 | z2 F2 z2 ^F2 | x8 | E>E F>F E4 |] %16
V:4
 x8 | x8 | x15/2[K:treble] x/ | x8 | x8 | x8 | x8 | .[G,B,]2 .G,,2 .[G,,G,]2 z2 | x8 | x8 | x8 | %11
 [C,C]2 [^C,_B,]2 D,2 G,,2 | x4[K:treble] x4 | x8 | x8 | x8 |] %16

